material/.icons/material/led-off.svg

<svg xmlns="http://www.w3.org/2000/svg" viewBox="0 0 24 24"><path d="M12 6a4 4 0 00-4 4v6H6v2h3v5h2v-5h2v5h2v-5h3v-2h-2v-6a4 4 0 00-4-4z"/></svg>

<?xml version="1.0" encoding="UTF-8"?><!DOCTYPE svg PUBLIC "-//W3C//DTD SVG 1.1//EN" "http://www.w3.org/Graphics/SVG/1.1/DTD/svg11.dtd"><svg xmlns="http://www.w3.org/2000/svg" xmlns:xlink="http://www.w3.org/1999/xlink" version="1.1" id="mdi-led-off" width="24" height="24" viewBox="0 0 24 24"><path d="M12,6A4,4 0 0,0 8,10V16H6V18H9V23H11V18H13V23H15V18H18V16H16V10A4,4 0 0,0 12,6Z" /></svg>
